X:90
T:Kittie Mannix's Polka
B:Terry "Cuz" Teahan "Sliabh Luachra on Parade" 1980
Z:Patrick Cavanagh
M:2/4
L:1/8
R:Polka
K:G
D | GB AB/A/ | Gg e/f/g/e/ | dB/4c/4B/4 AG/A/ | Bc/B/ A/F/D | 
GB/4c/4B/4 AB/A/ | Gg e/f/g/e/ | dB/4c/4B/4 AG/A/ | BG G :| 
A | B/c/d gd | B/c/d gd | B/c/d ge | f2 fa/a/ | 
gg e/f/g/e/ | dB/B/ AG/A/ | Be d/B/A/B/ | G2 G :|| 

